!!!COM: Vecchi, Orazio
!!!CDT:
!!!PTL: Canzonette. Libro primo. A quattro voci
!!!PPP: Venice
!!!PPR: Angelo Gardano
!!!PDT: 1580
!!!PUB-format:
!!!RISM: V 1010
!!!rime: 297
!!!OTL: Se 'l vostro volto è d'un'aria gentile
!!!AGN: Madrigal
!!!SCT: Trm0297a
!!!SCA: Trm0297a
!!!original-voices: 4
!!!extant-voices: 4
!!!complete: Y
!!!final: A
**kern	**text	**kern	**text	**kern	**text	**kern	**text
*part4	*part4	*part3	*part3	*part2	*part2	*part1	*part1
*staff4	*staff4	*staff3	*staff3	*staff2	*staff2	*staff1	*staff1
*I"Basso	*	*I"Tenore	*	*I"Alti	*	*I"Canto	*
*I'B	*	*I'T	*	*I'Alti	*	*I'C	*
*oclefC3	*	*oclefC1	*	*oclefG2	*	*oclefG2	*
*clefGv2	*	*clefG2	*	*clefG2	*	*clefG2	*
*k[]	*	*k[]	*	*k[]	*	*k[]	*
*C:	*	*C:	*	*C:	*	*C:	*
*omet(C)	*	*omet(C)	*	*omet(C)	*	*omet(C)	*
*M2/2	*	*M2/2	*	*M2/2	*	*M2/2	*
=1	=1	=1	=1	=1	=1	=1	=1
1r	.	4r	.	4r	.	4r	.
.	.	4c	Se'l	4cc	Se'l	4gg	Se'l
.	.	4c	vo-	4cc	vo-	4gg	vo-
.	.	4d	-stro	4a	-stro	4ff	-stro
=2	=2	=2	=2	=2	=2	=2	=2
2r	.	2c	vol-	2cc	vol-	2ee	vol-
4r	.	4g	-to	4b	-to	4dd	-to
4c	è	4cc	è	4ee	è	4gg	è
=3	=3	=3	=3	=3	=3	=3	=3
4g	d'un	4b	d'un	4dd	d'un	4gg	d'un
4d	a-	4a	a-	4dd	a-	4ff	a-
4e	-ria	4g	-ria	4cc	-ria	4ee	-ria
4g	gen-	4g	gen-	4b	gen-	4dd	gen-
=4	=4	=4	=4	=4	=4	=4	=4
2d	-ti-	2f#X	-ti-	2a	-ti-	2dd	-ti-
2G	-le,	2g	-le,	2b	-le,	2dd	-le,
=5	=5	=5	=5	=5	=5	=5	=5
1r	.	4r	.	4r	.	4r	.
.	.	4c	Se'l	4cc	Se'l	4gg	Se'l
.	.	4c	vo-	4cc	vo-	4gg	vo-
.	.	4d	-stro	4a	-stro	4ff	-stro
=6	=6	=6	=6	=6	=6	=6	=6
2r	.	2c	vol-	2cc	vol-	2ee	vol-
4r	.	4g	-to	4b	-to	4dd	-to
4c	è	4cc	è	4ee	è	4gg	è
=7	=7	=7	=7	=7	=7	=7	=7
4g	d'un	4b	d'un	4dd	d'un	4gg	d'un
4d	a-	4a	a-	4dd	a-	4ff	a-
4e	-ria	4g	-ria	4cc	-ria	4ee	-ria
4g	gen-	4g	gen-	4b	gen-	4dd	gen-
=8	=8	=8	=8	=8	=8	=8	=8
2d	-ti-	2f#X	-ti-	2a	-ti-	2dd	-ti-
2G	-le	2g	-le	2b	-le	2dd	-le
=9	=9	=9	=9	=9	=9	=9	=9
4r	.	4r	.	4r	.	4r	.
4G	E_i	4g	E_i	4b	E_i	4dd	E_i
4g	bei	4g	bei	4b	bei	4dd	bei
4f	vo-	4a	vo-	4a	vo-	4dd	vo-
=10	=10	=10	=10	=10	=10	=10	=10
4e	-stri_oc-	4g	-stri_oc-	4b	-stri_oc-	4ee	-stri_oc-
4d	-chi	4f	-chi	4dd	-chi	4ff	-chi
4c	son	4e	son	4ee	son	4gg	son
4d	due	4f	due	4dd	due	4ff	due
=11	=11	=11	=11	=11	=11	=11	=11
4e	fiam-	4g	fiam-	4b	fiam-	4ee	fiam-
4c	-me_ar-	4g	-me_ar-	4cc	-me_ar-	4ee	-me_ar-
2G	-den-	2g	-den-	2b	-den-	2dd	-den-
=12	=12	=12	=12	=12	=12	=12	=12
2c	-ti,	1g	-ti,	4cc	-ti,	1ee	-ti,
.	.	.	.	4cc	In	.	.
4r	.	.	.	2b	voi	.	.
4g	In	.	.	.	.	.	.
=13	=13	=13	=13	=13	=13	=13	=13
2f	voi	4r	.	2a	dun-	2r	.
.	.	4a	In	.	.	.	.
2e	dun-	4b	voi	2g	-que,	2gg	In
.	.	4g	dun-	.	.	.	.
=14	=14	=14	=14	=14	=14	=14	=14
4d	-que	4a	-que	2r	.	2ff	voi
4d	ci	4b	ci	.	.	.	.
2c	so-	4cc	so-	2cc	In	2ee	dun-
.	.	4g	-no,	.	.	.	.
=15	=15	=15	=15	=15	=15	=15	=15
2G	-no,	2r	.	2b	voi	4dd	-que,
.	.	.	.	.	.	4dd	in
4r	.	2cc	In	2a	dun-	4ee	voi
4A	In	.	.	.	.	4cc	dun-
=16	=16	=16	=16	=16	=16	=16	=16
4B	voi	2b	voi	2g	-que	4dd	-que
4G	dun-	.	.	.	.	4ee	ci
4A	-que	2a	dun-	4r	.	2ff	so-
4B	ci	.	.	4dd	ci	.	.
=17	=17	=17	=17	=17	=17	=17	=17
8cL	so-	4.g	-que	2cc	so-	2ee	-no
8d	.	.	.	.	.	.	.
8e	.	.	.	.	.	.	.
8fJ	.	8a	ci	.	.	.	.
4g	.	4b	so-	2b	-no	4.dd	due_e-
4g	-no	4b	-no	.	.	.	.
.	.	.	.	.	.	8ee	.
=18	=18	=18	=18	=18	=18	=18	=18
4f	due_e-	4a	due_e-	4cc	due_e-	4ff	.
4d	-le-	4a	-le-	4dd	-le-	4ff	-le-
2e	-men-	2g#X	-men-	2b	-men-	2ee	-men-
=19	=19	=19	=19	=19	=19	=19	=19
2A	-ti,	2a	-ti,	4a	-ti,	2ee	-ti,
.	.	.	.	4cc	In	.	.
4r	.	2r	.	2b	voi	2r	.
4g	In	.	.	.	.	.	.
=20	=20	=20	=20	=20	=20	=20	=20
2f	voi	4r	.	2a	dun-	2r	.
.	.	4a	In	.	.	.	.
2e	dun-	4b	voi	2g	-que,	2gg	In
.	.	4g	dun-	.	.	.	.
=21	=21	=21	=21	=21	=21	=21	=21
4d	-que	4a	-que	2r	.	2ff	voi
4d	ci	4b	ci	.	.	.	.
2c	so-	4cc	so-	2cc	In	2ee	dun-
.	.	4g	-no,	.	.	.	.
=22	=22	=22	=22	=22	=22	=22	=22
2G	-no,	2r	.	2b	voi	4dd	-que,
.	.	.	.	.	.	4dd	In
4r	.	2cc	In	2a	dun-	4ee	voi
4A	In	.	.	.	.	4cc	dun-
=23	=23	=23	=23	=23	=23	=23	=23
4B	voi	2b	voi	2g	-que	4dd	-que
4G	dun-	.	.	.	.	4ee	ci
4A	-que	2a	dun-	4r	.	2ff	so-
4B	ci	.	.	4dd	ci	.	.
=24	=24	=24	=24	=24	=24	=24	=24
8cL	so-	4.g	-que	2cc	so-	2ee	-co
8d	.	.	.	.	.	.	.
8e	.	.	.	.	.	.	.
8fJ	.	8a	ci-	.	.	.	.
4g	.	4b	-so-	2b	-no	4.dd	due_e-
4g	-no	4b	-no	.	.	.	.
.	.	.	.	.	.	8ee	.
=25	=25	=25	=25	=25	=25	=25	=25
4f	due_e-	4a	due_e-	4cc	due_e-	4ff	.
4d	-le-	4a	-le-	4dd	-le-	4ff	-le-
2e	-men-	2g#X	-men-	2b	-men-	2ee	-men-
=26	=26	=26	=26	=26	=26	=26	=26
1Al	-ti.	1al	-ti.	1cc#Xl	-ti.	1eel	-ti.
==	==	==	==	==	==	==	==
*-	*-	*-	*-	*-	*-	*-	*-
!!!system-decoration: [*]
!!!RDF**kern: i = editorial accidental
!!!RDF**kern: l = terminal long
!!!ENC: Emiliano Ricciardi
!!!END: 2019/01/30
!!!EED: Schleuse, Paul
!!!EEV: 2019/01/30
!!!YEC: Copyright 2018 Emiliano Ricciardi, All Rights Reserved
!!!ONB: Translated from MusicXML on 2019/01/30 and edited by Craig Stuart Sapp
!!@@BEGIN:	VERSEDATA
!!@SOLERTI:	297
!!@CATALOGNUM:	Trm0297
!!@LAST_MODIFIED: 2020/07/12
!!@ATTRIBUTION:	not secure
!!@TITLE:		Se 'l vostro volto è d'un'aria gentile
!!@GENRE:		canzonetta
!!@MANUSRC:	none
!!@PRINTSRC:	27, 70, 141, 166
!!@@BEGIN:	VERSES
!!@ABOUTIT:
!!@ABOUTEN:
!!@EDITOR:	Solerti, Angelo
!!@EDITION_TITLE: Le Rime di Torquato Tasso
!!@EDITION_LOC:	Bologna
!!@EDITION_PUB:	Romagnoli-Dall’Acqua
!!@EDITION_DATE:  1898-1902
!!@EDITION_VOL:	2
!!@EDITION_PAGE:  362
!!@TRANSLATOR:	Emiliano Ricciardi and Amyrose McCue Gill
!!@VERSE:
!!	Se 'l vostro volto è d'un'aria gentile
!!	E i bei vostri occhi son due fiamme ardenti,
!!	In voi dunque ci sono due elementi.
!!@VERSE:
!!	E se questi occhi or sono fonti e fiumi
!!	E cenere il mio cor, dunque diremo
!!	Che voi ed io quattro elementi semo.
!!@VERSE:
!!	E se voi sete un'aria e dolce foco,
!!	Acqua amara son io, cenere e terra,
!!	Perché fra noi ci nasce tanta guerra?
!!@VERSE:
!!	Ma se volesse il fato e la mia sorte
!!	Che tutti quattro fossimo una cosa,
!!	Oh che vita felice e glorïosa!
!!@TVERSE:
!!	If your face is as a gentle breeze
!!	And your beautiful eyes are two burning flames,
!!	Then in you there are two elements.
!!@TVERSE:
!!	And if these eyes are now fountains and rivers
!!	And my heart [is] ash, then we will say
!!	That you and I are four elements.
!!@TVERSE:
!!	And if you are a breeze and a sweet fire, [and]
!!	I am bitter water, ash, and earth,
!!	Why between us does so much war break out?
!!@TVERSE:
!!	But if fate and my destiny wished
!!	For all four of us to be one thing,
!!	Oh, what a happy and glorious life!
!!@@END:		VERSES
!!@OTHER_CRIT_ED:   None
!!@ATTRIBUTION_ABOUT:	Not secure
!!		<br>
!!		This poem is attributed to Tasso only in a literary print and reprints thereof that were not supervised by the poet (see Literary Sources).
!!@DATING:	Before 1579
!!		<br>
!!		The earliest appearance of this poem is in a musical setting by Orazio Vecchi originally published most likley in 1579 and reprinted in 1580--the princeps edition has not survived (see Musical Settings).
!!@DEDICATEE:
!!@COMMENTARY:
!!@@END:		VERSEDATA
!!@@BEGIN:	SETTING
!!@CATALOGNUM:	Trm0297a
!!@RIMETITLE:	Se 'l vostro volto è d'un'aria gentile
!!@SOLERTI:	297
!!@COMPOSER:	Vecchi, Orazio
!!@PRINCEPSTITLE:	Canzonette. Libro primo. A quattro voci
!!@PRINCEPSLOC:	Venetia
!!@NORMLOC:	Venice
!!@NORMPUB:	Angelo Gardano
!!@NORMPUBSHORT:	Gardano
!!@PRINCEPSPUB:	Gardano
!!@PRINCEPSYEAR:	1580
!!@PRINCEPSRISM:	V 1010
!!@REPRINTS:	V1011, V1012, V1013, V1014, V1015, V1016, V1017, V1018, V1019, V1020, V1021
!!@OVOICES:	4
!!@EXTANTVOICES:	4
!!@PARTBOOKS:	
!!@EXTPARTBOOKS:	
!!@OCLEFS:	G2,G2,C1,C3
!!@OMENSURATION:	C
!!@OKEYSIG:	-
!!@FINAL:	A
!!@TIMPEDITOR:	Schleuse, Paul
!!@NOTE:		
!!@@END:		SETTING
